!!!COM: Claude Goudimel
!!!OMD: Psalm 108: Mon coeur est dispos, ô mon Dieu
**kern	**kern	**kern	**kern
*part4	*part3	*part2	*part1
*staff4	*staff3	*staff2	*staff1
*I"bassus	*I"tenor	*I"contra	*I"superius
*clefF3	*clefC3	*clefC3	*clefG2
!!LO:TX:omd:t=
*M2/2	*M2/2	*M2/2	*M2/2
*met(c|)	*met(c|)	*met(c|)	*met(c|)
=1	=1	=1	=1
1C	1G	1E	1c
=2	=2	=2	=2
2AA	2c	2A	2e
2C	2c	2G	2e
=3	=3	=3	=3
2GG	2B	2G	2d
2D	[2A	2F#X	2d
=4	=4	=4	=4
1E	2A]	1G	1B
.	[2G	.	.
=5	=5	=5	=5
1D	2G]	1A	1d
.	2F#X	.	.
=6	=6	=6	=6
1GG	1G	1B	1d
=7	=7	=7	=7
1r	1r	1r	1r
=8	=8	=8	=8
1G	1G	1B	1d
=9	=9	=9	=9
2E	2G	2B	2e
2C	2c	2e	2g
=10	=10	=10	=10
2E	2B	2e	2g
2F	2A	2c	[2a
=11	=11	=11	=11
1E	1B	1e	2a]
.	.	.	2g#X
=12	=12	=12	=12
1A	1c	1e	1a
=13	=13	=13	=13
1G	1d	1g	1b
=14	=14	=14	=14
1r	1r	1r	1r
=15	=15	=15	=15
1GG	1B	1d	1g
=16	=16	=16	=16
2GG	2d	2B	2g
2BB	2d	2B	2f#X
=17	=17	=17	=17
2C	2c	2G	2e
2GG	2B	2d	2g
=18	=18	=18	=18
1D	1A	1d	1f#X
=19	=19	=19	=19
1GG	1G	1B	1d
=20	=20	=20	=20
1D	1F#X	1A	1d
=21	=21	=21	=21
1r	1r	1r	1r
=22	=22	=22	=22
1D	1D	1A	1d
=23	=23	=23	=23
2AA	2E	2A	2c#X
2D	2F#X	2A	2d
=24	=24	=24	=24
2C	2G	2c	2e
2AA	[2A	2c	2e
=25	=25	=25	=25
1C	2A]	1c	1e
.	[2G	.	.
=26	=26	=26	=26
1D	2G]	1A	1d
.	2F#X	.	.
=27	=27	=27	=27
1GG	1G	1B	1d
=28	=28	=28	=28
1r	1r	1r	1r
=29	=29	=29	=29
1G	1B	1d	1g
=30	=30	=30	=30
2G	2B	2d	2g
2D	2A	2d	2f#X
=31	=31	=31	=31
1E	1G	1B	1e
=32	=32	=32	=32
1C	1c	1E	1e
=33	=33	=33	=33
2GG	2B	2G	2d
2C	2A	2E	2e
=34	=34	=34	=34
1BB	1B	1F#X	1e-X
=35	=35	=35	=35
1r	1r	1r	1r
=36	=36	=36	=36
1G	1B	1d	1g
=37	=37	=37	=37
2G	2B	2d	2g
2D	2A	2d	2f#X
=38	=38	=38	=38
1E	1G	1B	1e
=39	=39	=39	=39
1C	1c	1E	1e
=40	=40	=40	=40
2GG	2B	2G	2d
2C	2A	2E	2e
=41	=41	=41	=41
1BB	1B	1F#X	1e-X
=42	=42	=42	=42
1r	1r	1r	1r
=43	=43	=43	=43
1GG	1B	1d	1g
=44	=44	=44	=44
2BB	2d	2B	2f#X
2C	2c	2G	2e
=45	=45	=45	=45
1GG	1B	1d	1g
=46	=46	=46	=46
1AA	1A	1c	2f#X
.	.	.	[2e
=47	=47	=47	=47
2C	2G	2c	2e]
2D	2F#X	2A	[2d
=48	=48	=48	=48
1AA	1E	1A	2d]
.	.	.	2c#X
=49	=49	=49	=49
1D	1D	1A	1d
=50	=50	=50	=50
1r	1r	1r	1r
=51	=51	=51	=51
1C	1G	1c	1e
=52	=52	=52	=52
2AA	2A	2c	2e
2GG	2B	2d	2g
=53	=53	=53	=53
1C	1G	1c	1e
=54	=54	=54	=54
1AA	1c	1e	1a
=55	=55	=55	=55
2BB	2B	2d	2f#X
2GG	2B	2d	[2g
=56	=56	=56	=56
1D	1A	1d	2g]
.	.	.	2f#X
=57	=57	=57	=57
1GG;	1G;	1d;	1g;
==	==	==	==
*-	*-	*-	*-
!!!software: music21 v.9.7.1
!!!software: music21 v.9.1.0
!!!RDF**kern: > = above
!!!RDF**kern: < = below
